X:1
T:Title
%%score { ( 1 4 6 ) | ( 2 3 5 ) }
L:1/8
Q:1/4=100
M:6/8
K:C
V:1 treble nm="Grand Piano"
V:4 treble 
V:6 treble 
V:2 bass 
V:3 bass 
V:5 bass 
V:1
 .[CEG]2 [A,_E^F] .[G,=EG]2 [Ee] | .[Fe]2 [B,Fd] [Cc]B[_EA] | z3 .E2 [DB][K:bass] | .B3 G3 | %4
w: J.~B.~Dykes * * *||||
 .[CEG]2 [A,_E^F] .[G,=EG]2 [Ee] | .[Fe]2 [B,Fd] [CEc][DEB][CEA] | D-[DB]c ded | z3 z2 A | %8
w: ||||
 z2 G- G z z | [CA]3 B,C[DF] | [G,CE]2 [F,CD][K:treble] [G,CE]2 [A,CF] | [_B,G]-[B,DG][B,EG] z2 C | %12
w: ||||
 ^F2 E F2 G | A3 z3 | G2 G c2 c | dcd _e3 | _e2 c edc | c3 B3 | .c3 z3 | c3 .e3 | c6 | G3 .E3 | %22
w: ||||||||||
 G3 G3 | G6- | G3 z3 |] %25
w: |||
V:2
 z G,C, z C[C,G,] | z GG,, z G,^F, | z A[B,,G,] [A,,G,]2 .[B,,G,] | .[G,C]2 C B,A,B, | %4
 z G,C, z C[C,G,] | z GG,, C,C,C, | z G,[A,D] D3 | D2 [A,C] [E,G,B,][C,^G,D].[C,A,C] | %8
 [D,B,D]3 [D,A,]2 [D,A,C] | .^F,3 z3 | C,2 C, C,2 C, | E,D,C, F,2 _E, | %12
 [D,A,D]2 [D,G,D] [D,A,D]2 [D,B,D] | .[^F,D]3 z3 | G,2 G,[K:treble] C2 C | DCD _E3 | %16
 [^G,C_E]2 [G,CE] [CE][DF][G,E^F] | [EG]2 _E .[G,DG]3 | .[A,CE]2 [A,CE] [D,A,][E,G,][F,F] | %19
 .[EG]2 C[K:bass] .B,2 B, | z2 A, G,2 A, | z2 A, C,E,F, | [G,E]3 .[CE]2 C | z2 A, G,2 F, | %24
 E,2 F, [C,E,C]3 |] %25
V:3
 .C,3 .C,3 | .[G,,A,]3 C,3 | .C,3 z3 | z F,2 G,3 | .C,3 .C,3 | .[G,,G,]3 z3 | .D,3 [D,B,]3- | %7
 [D,-B,]2 D, z3 | x6 | G,,-[G,,-E,][G,,D,] G,,A,,B,, | x6 | x6 | x6 | C-[E,C-][D,C] [G,B,]3 | %14
 x3[K:treble] x3 | x6 | z3 .^G,3 | G,3 z3 | x6 | G,3[K:bass] [G,,F]3 | C,6 | C,3 z3 | z3 G,3 | %23
 G,,6 | C,3 z3 |] %25
V:4
 x6 | z3 .E3 | .[G,EG]2 [EB] c-[_E-c]E/[K:bass]C,/ | z DA z FD | x6 | x6 | .[B,G]3 z3 | %7
 cE^F G.B>E | .A3 z E^F | z3 .[G,G]3 | x3[K:treble] x3 | .C3 [A,F]3 | x6 | z E^F G3 | x6 | x6 | %16
 x6 | z2 A z2 F | z Dc [Ff][Ge][Ad] | z DE z A,d | [CE]2 F F2 F | [G,E]2 F [G,G]-[G,-CG-][G,DG] | %22
 z CD z DE | .[B,F]3 E2 D | C2 D G3 |] %25
V:5
 x6 | x6 | x6 | D,3 z3 | x6 | x6 | x6 | x6 | x6 | x6 | x6 | x6 | x6 | x6 | x3[K:treble] x3 | x6 | %16
 x6 | x6 | x6 | x3[K:bass] x3 | x6 | x6 | x6 | x6 | x6 |] %25
V:6
 x6 | x6 | x11/2[K:bass] x/ | x6 | x6 | x6 | x6 | x6 | z3 .C3 | x6 | x3[K:treble] x3 | x6 | x6 | %13
 x6 | x6 | x6 | x6 | x6 | x6 | x6 | x6 | x6 | x6 | x6 | x6 |] %25

